packages/website/static/img/logos/flowbite.svg

<svg fill="none" height="33" viewBox="0 0 32 33" width="32" xmlns="http://www.w3.org/2000/svg" xmlns:xlink="http://www.w3.org/1999/xlink"><linearGradient id="a"><stop offset="0" stop-color="#1724c9"/><stop offset="1" stop-color="#1c64f2"/></linearGradient><linearGradient id="b" gradientUnits="userSpaceOnUse" x1="20.0599" x2="23.2075" xlink:href="#a" y1="24.2701" y2="13.307"/><linearGradient id="c"><stop offset="0" stop-color="#1c64f2"/><stop offset="1" stop-color="#0092ff"/></linearGradient><linearGradient id="d" gradientUnits="userSpaceOnUse" x1="27.3093" x2="19.0297" xlink:href="#c" y1="10.9001" y2="2.64962"/><linearGradient id="e"><stop offset="0" stop-color="#0092ff"/><stop offset="1" stop-color="#45b2ff"/></linearGradient><linearGradient id="f" gradientUnits="userSpaceOnUse" x1="16.1645" x2="3.67432" xlink:href="#e" y1="5.52115" y2="6.3104"/><linearGradient id="g" gradientUnits="userSpaceOnUse" x1="15.3198" x2="26.5366" xlink:href="#c" y1="29.1626" y2="26.1359"/><linearGradient id="h" gradientUnits="userSpaceOnUse" x1="7.26881" x2="15.2325" xlink:href="#a" y1="16.1827" y2="24.4347"/><linearGradient id="i" gradientUnits="userSpaceOnUse" x1="25.4505" x2="31.007" xlink:href="#e" y1="22.1356" y2="10.9345"/><linearGradient id="j" gradientUnits="userSpaceOnUse" x1="5.36387" x2="2.39054" xlink:href="#c" y1="9.63067" y2="20.8063"/><linearGradient id="k" gradientUnits="userSpaceOnUse" x1="20.5431" x2="9.67768" xlink:href="#a" y1="9.09912" y2="11.8044"/><linearGradient id="l" gradientUnits="userSpaceOnUse" x1="6.40679" x2="13.3326" xlink:href="#e" y1="21.8566" y2="32.2745"/><path d="m24.5194 13.4429c-.0741.5104-.4107 1.2039-.7968 1.8068-.4872.7608-1.2604 1.2936-2.1452 1.4786l-3.8977.8151c-.6264.131-1.1945.4588-1.621.9356l-2.5557 2.8567c-.4803.5368-.816.4088-.816-.3113-.0058.0267-1.2684 3.2828 2.0776 5.2127 1.2856.7416 3.1363.4751 4.4219-.2664l6.8118-3.9291c2.5475-1.4694 4.3462-3.9553 4.9441-6.8327.0236-.1139.0419-.2281.0616-.3422z" fill="url(#b)"/><path d="m22.7528 9.51774c1.2856.74156 1.8109 1.84556 1.8109 3.32866 0 .2013-.0158.4002-.0443.5961l2.7447 1.179 3.7399.2448c.4789-2.7715-.4596-5.62428-2.142-7.89185-1.2661-1.70645-2.8953-3.18731-4.8539-4.31707-1.5911-.91772-3.2445-1.52237-4.9056-1.854157l-1.8664 2.417007-.5896 2.77536z" fill="url(#d)"/><path d="m.783597 11.5518c-.000698.0022.001235.0028.001963.0006.144023-.4319.32462-.9139.55008-1.4287 1.1777-2.6894 3.44722-4.48308 6.23928-5.39762 2.79208-.91452 5.84058-.59396 8.38518.8738l.6864.3959 2.456-5.192368c-7.8115-1.560177-15.79522 3.029118-18.308972 10.718288-.001201.0037-.005571.0165-.009931.0301z" fill="url(#f)"/><path d="m18.9199 25.9704c-1.2856.7416-2.8696.7416-4.1552 0-.1745-.1007-.339-.2138-.4946-.3364l-2.261 1.5545-1.9488 3.1491c2.163 1.8001 4.9718 2.3788 7.7787 2.0569 2.1123-.2422 4.2105-.9113 6.1692-2.0411 1.591-.9177 2.9419-2.0459 4.06-3.3173l-1.1619-2.8233-1.8801-1.7646z" fill="url(#g)"/><path d="m14.2701 25.6341c-.9905-.7802-1.5829-1.9769-1.5829-3.2587v-.1278-10.6752c0-.6037.1778-.7063.7012-.4044-.8061-.465-2.6681-2.06099-4.96722-.7349-1.28561.7416-2.34428 2.3785-2.34428 3.8615v7.8583c0 2.9388 1.52216 6.0044 3.71758 7.9604.08684.0773.17674.1503.26582.2244z" fill="url(#h)"/><path d="m27.9105 5.8123c-.0015-.0017-.003-.00033-.0015.00138.3024.3406.6299.73782.9635 1.19031 1.7424 2.36366 2.3934 5.35731 1.7902 8.23031-.6033 2.8729-2.4054 5.3503-4.9501 6.818l-.6864.3959 3.0421 4.5879c5.2582-5.9785 5.2718-15.1807-.1367-21.20016-.0025-.00288-.0115-.01307-.0211-.02364z" fill="url(#i)"/><path d="m6.34355 14.2944c-.00001-1.4831.79197-2.8536 2.07758-3.5951.17452-.1007.35488-.1864.53889-.2598l-.21698-2.73347-1.52442-3.12742c-2.64191.97144-4.77892 2.97905-5.90334 5.56849-.846183 1.9486-1.31527021 4.0987-1.31528 6.3581 0 1.8355.302549 3.5683.845533 5.1715l3.028377.4063 2.46964-.7443z" fill="url(#j)"/><path d="m8.96003 10.4395c1.17157-.46686 2.50517-.3811 3.61627.2598l.1108.0639 8.8954 5.1309c.624.3599.5673.7141-.138.8616l.5132-.1073c.6752-.1412 1.2921-.4863 1.7639-.9892.8111-.8646 1.1089-1.9077 1.1089-2.8129-.0001-1.4831-.792-2.85356-2.0776-3.5951l-6.8119-3.92911c-2.5475-1.46942-5.6016-1.78275-8.3949-.86126-.1105.03644-.21866.07777-.32747.11778z" fill="url(#k)"/><path d="m19.3222 32.1523c.0023-.0005.0019-.0025-.0004-.002-.4465.0914-.9545.1761-1.5135.2385-2.9202.3257-5.8407-.6078-8.02954-2.5663-2.18877-1.9584-3.43516-4.7563-3.43516-7.6918l-.00001-.7918-5.498009.338c2.553349 7.5387 10.523419 12.1516 18.445619 10.4819.0038-.0008.0171-.0035.031-.0065z" fill="url(#l)"/></svg>

<svg width="32" height="33" viewBox="0 0 32 33" fill="none" xmlns="http://www.w3.org/2000/svg">
  <path d="M24.5194 13.4429C24.4453 13.9533 24.1087 14.6468 23.7226 15.2497C23.2354 16.0105 22.4622 16.5433 21.5774 16.7283L17.6797 17.5434C17.0533 17.6744 16.4852 18.0022 16.0587 18.479L13.503 21.3357C13.0227 21.8725 12.687 21.7445 12.687 21.0244C12.6812 21.0511 11.4186 24.3072 14.7646 26.2371C16.0502 26.9787 17.9009 26.7122 19.1865 25.9707L25.9983 22.0416C28.5458 20.5722 30.3445 18.0863 30.9424 15.2089C30.966 15.095 30.9843 14.9808 31.004 14.8667L24.5194 13.4429Z" fill="url(#paint0_linear_2484_3243)"/>
  <path d="M22.7528 9.51774C24.0384 10.2593 24.5637 11.3633 24.5637 12.8464C24.5637 13.0477 24.5479 13.2466 24.5194 13.4425L27.2641 14.6215L31.004 14.8663C31.4829 12.0948 30.5444 9.24202 28.862 6.97445C27.5959 5.268 25.9667 3.78714 24.0081 2.65738C22.417 1.73966 20.7636 1.13501 19.1025 0.803223L17.2361 3.22023L16.6465 5.99559L22.7528 9.51774Z" fill="url(#paint1_linear_2484_3243)"/>
  <path d="M0.783597 11.5518C0.782899 11.554 0.784832 11.5546 0.78556 11.5524C0.929583 11.1205 1.11018 10.6385 1.33564 10.1237C2.51334 7.4343 4.78286 5.64062 7.57492 4.72608C10.367 3.81156 13.4155 4.13212 15.9601 5.59988L16.6465 5.99578L19.1025 0.803412C11.291 -0.756765 3.30728 3.83253 0.793528 11.5217C0.792327 11.5254 0.787957 11.5382 0.783597 11.5518Z" fill="url(#paint2_linear_2484_3243)"/>
  <path d="M18.9199 25.9704C17.6343 26.712 16.0503 26.712 14.7647 25.9704C14.5902 25.8697 14.4257 25.7566 14.2701 25.634L12.0091 27.1885L10.0603 30.3376C12.2233 32.1377 15.0321 32.7164 17.839 32.3945C19.9513 32.1523 22.0495 31.4832 24.0082 30.3534C25.5992 29.4357 26.9501 28.3075 28.0682 27.0361L26.9063 24.2128L25.0262 22.4482L18.9199 25.9704Z" fill="url(#paint3_linear_2484_3243)"/>
  <path d="M14.2701 25.6341C13.2796 24.8539 12.6872 23.6572 12.6872 22.3754V22.2476V11.5724C12.6872 10.9687 12.865 10.8661 13.3884 11.168C12.5823 10.703 10.7203 9.10701 8.42118 10.4331C7.13557 11.1747 6.0769 12.8116 6.0769 14.2946V22.1529C6.0769 25.0917 7.59906 28.1573 9.79448 30.1133C9.88132 30.1906 9.97122 30.2636 10.0603 30.3377L14.2701 25.6341Z" fill="url(#paint4_linear_2484_3243)"/>
  <path d="M27.9105 5.8123C27.909 5.8106 27.9075 5.81197 27.909 5.81368C28.2114 6.15428 28.5389 6.5515 28.8725 7.00399C30.6149 9.36765 31.2659 12.3613 30.6627 15.2343C30.0594 18.1072 28.2573 20.5846 25.7126 22.0523L25.0262 22.4482L28.0683 27.0361C33.3265 21.0576 33.3401 11.8554 27.9316 5.83594C27.9291 5.83306 27.9201 5.82287 27.9105 5.8123Z" fill="url(#paint5_linear_2484_3243)"/>
  <path d="M6.34355 14.2944C6.34354 12.8113 7.13552 11.4408 8.42113 10.6993C8.59565 10.5986 8.77601 10.5129 8.96002 10.4395L8.74304 7.70603L7.21862 4.57861C4.57671 5.55005 2.4397 7.55766 1.31528 10.1471C0.469097 12.0957 9.792e-06 14.2458 0 16.5052C0 18.3407 0.302549 20.0735 0.845533 21.6767L3.87391 22.083L6.34355 21.3387V14.2944V14.2944Z" fill="url(#paint6_linear_2484_3243)"/>
  <path d="M8.96003 10.4395C10.1316 9.97264 11.4652 10.0584 12.5763 10.6993L12.6871 10.7632L21.5825 15.8941C22.2065 16.254 22.1498 16.6082 21.4445 16.7557L21.9577 16.6484C22.6329 16.5072 23.2498 16.1621 23.7216 15.6592C24.5327 14.7946 24.8305 13.7515 24.8305 12.8463C24.8304 11.3632 24.0385 9.99274 22.7529 9.2512L15.941 5.32209C13.3935 3.85267 10.3394 3.53934 7.5461 4.46083C7.4356 4.49727 7.32744 4.5386 7.21863 4.57861L8.96003 10.4395Z" fill="url(#paint7_linear_2484_3243)"/>
  <path d="M19.3222 32.1523C19.3245 32.1518 19.3241 32.1498 19.3218 32.1503C18.8753 32.2417 18.3673 32.3264 17.8083 32.3888C14.8881 32.7145 11.9676 31.781 9.77876 29.8225C7.58999 27.8641 6.3436 25.0662 6.3436 22.1307L6.34359 21.3389L0.845581 21.6769C3.39893 29.2156 11.369 33.8285 19.2912 32.1588C19.295 32.158 19.3083 32.1553 19.3222 32.1523Z" fill="url(#paint8_linear_2484_3243)"/>
  <defs>
  <linearGradient id="paint0_linear_2484_3243" x1="20.0599" y1="24.2701" x2="23.2075" y2="13.307" gradientUnits="userSpaceOnUse">
  <stop stop-color="#1724C9"/>
  <stop offset="1" stop-color="#1C64F2"/>
  </linearGradient>
  <linearGradient id="paint1_linear_2484_3243" x1="27.3093" y1="10.9001" x2="19.0297" y2="2.64962" gradientUnits="userSpaceOnUse">
  <stop stop-color="#1C64F2"/>
  <stop offset="1" stop-color="#0092FF"/>
  </linearGradient>
  <linearGradient id="paint2_linear_2484_3243" x1="16.1645" y1="5.52115" x2="3.67432" y2="6.3104" gradientUnits="userSpaceOnUse">
  <stop stop-color="#0092FF"/>
  <stop offset="1" stop-color="#45B2FF"/>
  </linearGradient>
  <linearGradient id="paint3_linear_2484_3243" x1="15.3198" y1="29.1626" x2="26.5366" y2="26.1359" gradientUnits="userSpaceOnUse">
  <stop stop-color="#1C64F2"/>
  <stop offset="1" stop-color="#0092FF"/>
  </linearGradient>
  <linearGradient id="paint4_linear_2484_3243" x1="7.26881" y1="16.1827" x2="15.2325" y2="24.4347" gradientUnits="userSpaceOnUse">
  <stop stop-color="#1724C9"/>
  <stop offset="1" stop-color="#1C64F2"/>
  </linearGradient>
  <linearGradient id="paint5_linear_2484_3243" x1="25.4505" y1="22.1356" x2="31.007" y2="10.9345" gradientUnits="userSpaceOnUse">
  <stop stop-color="#0092FF"/>
  <stop offset="1" stop-color="#45B2FF"/>
  </linearGradient>
  <linearGradient id="paint6_linear_2484_3243" x1="5.36387" y1="9.63067" x2="2.39054" y2="20.8063" gradientUnits="userSpaceOnUse">
  <stop stop-color="#1C64F2"/>
  <stop offset="1" stop-color="#0092FF"/>
  </linearGradient>
  <linearGradient id="paint7_linear_2484_3243" x1="20.5431" y1="9.09912" x2="9.67768" y2="11.8044" gradientUnits="userSpaceOnUse">
  <stop stop-color="#1724C9"/>
  <stop offset="1" stop-color="#1C64F2"/>
  </linearGradient>
  <linearGradient id="paint8_linear_2484_3243" x1="6.40679" y1="21.8566" x2="13.3326" y2="32.2745" gradientUnits="userSpaceOnUse">
  <stop stop-color="#0092FF"/>
  <stop offset="1" stop-color="#45B2FF"/>
  </linearGradient>
  </defs>
  </svg>
